X: 160779
T: Patrick Kelly's
S: "Music of Ireland - The Big Session" (DJ Taylor)
Z: B.Black
L: 1/8
M: 4/4
R: reel
K: A
BE E2 BEcE|BE E2 BEdB|cA A2 cAeA|1 ceef eAdc :|2\
ceef e3 c ||
dffe dcBA|dffe d3 e|f2 fe fgaf|1 ecAc e2 fe :|2\
ecAc eAdc ||
